X:1
T:Tu parti anima mia
T:Tu parti anima mia
T:Giovanni Nauwach
T:Source : Libro primo di Arie passeggiate a una voce + BC ---Brescia---1623. Editor : André Vierendeels (29/10/16).
T:Notes : Original clefs : C1, F4 Editorial accidentals above the staff Figures in BC are notated in original print
T:©
T:©
T:©
T:©
T:©
C:Giovanni Nauwach
Z:©
%%score 1 2
L:1/8
Q:1/4=90
M:4/4
K:C
V:1 treble nm="Soprano" snm="S"
V:2 bass nm="MusicXML Part"
V:1
 z2 d2 d4- | d4 B4 | z2 e2 e4- | e4 c4 | d2 c_B A4 | G6 B2 | c6 d2 | B4 edcB | B8 | A6 c2 | %10
w: Tu par-|* ti,|tu par-|* ti,|a- ni- ma mi-|a, oi-||me tu _ _ _|par-|ti, oi|
 c4 G2 G2- | G2 ^F2 ^G4 | ^G4 z2 AB | c6 Bc | d8 | e/d/c/B/ A/B/c/B/ c/A/4B/4c/4d/4e/4f/4 g2 | %16
w: me ch'io re-|* sto pri-|vo, di quel|ben, di quel|ben|ond' _ _ _ _ _ _ _ _ _ _ _ _ _ _ _|
 f/e/d/e/ f/e/f/e/ d4 | c4 z2 AB | c2 GG A4 | G8 | dc B4 cd | e/d/c/B/ A/B/c/A/ B/c/d- Td<^c | d8 | %23
w: io _ _ _ _ _ _ _ vi-|vo, ca- re|stel- le d'a- mo-|re,|oc- chi miei, oc- chi|bel- * * * * * * * * * * * *|li,|
"^-natural" c4 B2 A2 | B6 B2 | A4 A4 | _B2 B/A/B/G/ A/B/c/ Td2 c/ | B8 | z2 c2 ^c4 | A4 z2 AB | %30
w: se sen- za'il|vo- stre'ar-|do- re,|que- st'a- * * * * * * * ni-|ma|so mo-|re, se voi|
 c6 GE | D4 C2 EF | G2 FE A4 | G4 z ddc | B4 A2 A2- | A2 G2 F4- | F2 E2 E4 | D8 | %38
w: se- te pur|quel- li che mi|man- tien in vi-|ta, co- m'es- ser|puo chall' as-|* pra di|_ par- ti-|ta,|
 D/E/F/E/ F/D/E/F/ G/F/G/E/ F/G/A | B/c/d/c/ B2 A4 | z2 cd _B4- | B2 AG A4 | G4 cBcA | fedc B4 | %44
w: non _ _ _ _ _ _ _ m'an- * * * * * *|* * * * ci- da|il do- lo-||re, oi _ _ _|_ _ _ _ me,|
 dcdB cBAG | ^F4 G2 D2- | D2 _E4 F2 | D4 z2 d2 | d3 B c4 | e/d/c/B/ A/G/^F/G/ A4 | !fermata!G8 |] %51
w: oi _ _ _ _ _ _ _|me, ch'io mo-||ro, oi|me mi man-|* ca'il _ _ _ _ _ _ co-|re.|
V:2
 G,,8- | G,,8 | C,8 | A,,8 |"^#" B,,2 C,2 D,4 | G,,8 | A,,8 |"^#" E,8- | E,8 | A,,8 | %10
 A,,2 B,,2 C,4- |"^#" C,2 D,2 E,4 |"^#" E,4 A,,4 | A,,4 A,,4 | G,,8 | C,8 |"^3443" G,,8 | %17
 C,2 D,E, F,4 |"^6""^#" E,4 D,4 | G,,8 | G,4 G,,4 | C,2 B,,2 A,,4 | D,8 | A,,4 G,,2 F,,2 | %24
"^#" E,,8 | A,,8 |"^b" G,,4 D,4 |"^#" E,8 |"^#" C,3 B,, A,,4 | D,4 D,4 | C,8 | B,,4 C,4 | %32
"^#" C,4 D,4 | G,,2 A,,2 B,,4 | z B,,B,,C, D,2 E,2 | ^F,2 G,2 D,2 C,B,, |"^# 3443" A,,8 | D,8 | %38
 D,4 C,4 | B,,4 ^C,2 D,E, |"^b" ^F,4 G,4 |"^#" D,8 | G,,4 A,,4- | A,,4 G,,2 A,,2 | B,,6 ^C,2 | %45
"^#" D,4 G,4 |"^b" C,8 | D,2 E,2 ^F,4 |"^(-natural)" G,4 F,4 |"^#" E,4 D,4 | !fermata!G,,8 |] %51

